app/images/markers/numbered/3.svg

<svg height="46" viewBox="0 0 40 46" width="40" xmlns="http://www.w3.org/2000/svg"><g fill="none" fill-rule="evenodd"><path d="m20 46.037c1.732 0 3.412-6.257 5.015-6.67 8.618-2.227 14.985-10.054 14.985-19.367 0-11.046-8.954-20-20-20s-20 8.954-20 20c0 9.318 6.372 17.147 14.996 19.37 1.6.41 3.276 6.667 5.004 6.667z" fill="#000" fill-rule="nonzero"/><path d="m20 46.037c1.732 0 3.412-6.257 5.015-6.67 8.618-2.227 14.985-10.054 14.985-19.367 0-11.046-8.954-20-20-20s-20 8.954-20 20c0 9.318 6.372 17.147 14.996 19.37 1.6.41 3.276 6.667 5.004 6.667z" fill="#00a862"/><g transform="translate(11 8)"><path d="m17.688 2.35c-.108-.46-.587-1.65-1.5-1.65h-14.378c-.912 0-1.39 1.19-1.503 1.682l-.295 1.634c-.033.188.018.38.14.527.122.146.302.23.493.23h.824l1.158 16.44c.06.962.863 1.715 1.83 1.715h9.09c.967 0 1.77-.753 1.83-1.71l1.156-16.445h.826c.192 0 .372-.084.494-.23s.173-.34.14-.527l-.302-1.666z" fill="#fff" fill-rule="nonzero"/><path d="m5.82938477 16.9301758v-1.4091797c.93099424.3597023 1.69905297.5395508 2.30419922.5395508.56282834 0 1.01456536-.1438788 1.35522461-.4316407.34065926-.2877618.51098633-.6707332.51098633-1.1489257 0-1.2399151-.90770577-1.8598633-2.72314453-1.8598633h-.57763672v-1.1235352l.48876953-.0063476c1.70118038 0 2.55175781-.5564723 2.55175781-1.66943362 0-.85059019-.52473433-1.2758789-1.57421875-1.2758789-.68978209 0-1.42610285.17561673-2.20898437.52685546v-1.28222656c.82519944-.28353006 1.69481965-.42529297 2.60888672-.42529297.96908036 0 1.72761768.19889124 2.27563478.59667969.548017.39778845.8220215.94791315.8220215 1.65039062 0 1.10872948-.6918876 1.89159928-2.07568363 2.34863278 1.58269023.3639341 2.37402343 1.2102799 2.37402343 2.5390625 0 .8421266-.3173796 1.5086239-.9521484 1.9995118-.6347688.4908878-1.49804144.7363281-2.58984378.7363281-.92676244 0-1.79003506-.1015615-2.58984375-.3046875z" fill="#4a4a4a"/></g></g></svg>

<?xml version="1.0" encoding="UTF-8"?>
<svg width="40px" height="46px" viewBox="0 0 40 46" version="1.1" xmlns="http://www.w3.org/2000/svg" xmlns:xlink="http://www.w3.org/1999/xlink">
    <!-- Generator: Sketch 47.1 (45422) - http://www.bohemiancoding.com/sketch -->
    <title>starbucks-marker</title>
    <desc>Created with Sketch.</desc>
    <defs></defs>
    <g id="Page-1" stroke="none" stroke-width="1" fill="none" fill-rule="evenodd">
        <g id="starbucks-marker">
            <g id="Group">
                <g id="b-link">
                    <g id="b">
                        <g id="path-1-link" fill-rule="nonzero" fill="#000000">
                            <path d="M20,46.037 C21.732,46.037 23.412,39.78 25.015,39.367 C33.633,37.14 40,29.313 40,20 C40,8.954 31.046,0 20,0 C8.954,0 0,8.954 0,20 C0,29.318 6.372,37.147 14.996,39.37 C16.596,39.78 18.272,46.037 20,46.037 Z" id="path-1"></path>
                        </g>
                        <g id="path-1-link" fill="#00A862">
                            <path d="M20,46.037 C21.732,46.037 23.412,39.78 25.015,39.367 C33.633,37.14 40,29.313 40,20 C40,8.954 31.046,0 20,0 C8.954,0 0,8.954 0,20 C0,29.318 6.372,37.147 14.996,39.37 C16.596,39.78 18.272,46.037 20,46.037 Z" id="path-1"></path>
                        </g>
                    </g>
                </g>
            </g>
            <g id="Group" transform="translate(11.000000, 8.000000)">
                <g id="d-link">
                    <path d="M17.688,2.35 C17.58,1.89 17.101,0.7 16.188,0.7 L1.81,0.7 C0.898,0.7 0.42,1.89 0.307,2.382 L0.012,4.016 C-0.021,4.204 0.03,4.396 0.152,4.543 C0.274,4.689 0.454,4.773 0.645,4.773 L1.469,4.773 L2.627,21.213 C2.687,22.175 3.49,22.928 4.457,22.928 L13.547,22.928 C14.514,22.928 15.317,22.175 15.377,21.218 L16.533,4.773 L17.359,4.773 C17.551,4.773 17.731,4.689 17.853,4.543 C17.975,4.397 18.026,4.203 17.993,4.016 L17.691,2.35 L17.688,2.35 Z" id="d" fill="#FFFFFF" fill-rule="nonzero"></path>
                    <path d="M5.82938477,16.9301758 L5.82938477,15.5209961 C6.76037901,15.8806984 7.52843774,16.0605469 8.13358399,16.0605469 C8.69641233,16.0605469 9.14814935,15.9166681 9.4888086,15.6289062 C9.82946786,15.3411444 9.99979493,14.958173 9.99979493,14.4799805 C9.99979493,13.2400654 9.09208916,12.6201172 7.2766504,12.6201172 L6.69901368,12.6201172 L6.69901368,11.496582 L7.18778321,11.4902344 C8.88896359,11.4902344 9.73954102,10.9337621 9.73954102,9.82080078 C9.73954102,8.97021059 9.21480669,8.54492188 8.16532227,8.54492188 C7.47554018,8.54492188 6.73921942,8.72053861 5.9563379,9.07177734 L5.9563379,7.78955078 C6.78153734,7.50602072 7.65115755,7.36425781 8.56522462,7.36425781 C9.53430498,7.36425781 10.2928423,7.56314905 10.8408594,7.9609375 C11.3888764,8.35872595 11.6628809,8.90885065 11.6628809,9.61132812 C11.6628809,10.7200576 10.9709933,11.5029274 9.58719727,11.9599609 C11.1698875,12.323895 11.9612207,13.1702408 11.9612207,14.4990234 C11.9612207,15.34115 11.6438411,16.0076473 11.0090723,16.4985352 C10.3743035,16.989423 9.51103086,17.2348633 8.41922852,17.2348633 C7.49246608,17.2348633 6.62919346,17.1333018 5.82938477,16.9301758 Z" id="3" fill="#4A4A4A"></path>
                </g>
            </g>
        </g>
    </g>
</svg>
